static/img/icons/linkarrowgreen.svg

<svg fill="none" viewBox=".84 .25 11.69 10.18" xmlns="http://www.w3.org/2000/svg"><path d="m7.43919 10.4367 5.09091-5.09091-5.09091-5.090907-.875.874997 3.60231 3.59091h-9.329586v1.25h9.329586l-3.60231 3.60227z" fill="#10ca9d"/></svg>

<svg width="13" height="11" viewBox="0 0 13 11" fill="none" xmlns="http://www.w3.org/2000/svg">
<path d="M7.43919 10.4367L12.5301 5.34579L7.43919 0.254883L6.56419 1.12988L10.1665 4.72079H0.836914V5.97079H10.1665L6.56419 9.57306L7.43919 10.4367Z" fill="#10CA9D"/>
</svg>
